public/images/minstrel.svg

<?xml version="1.0" encoding="UTF-8" standalone="no"?>
<!-- Created with Inkscape (http://www.inkscape.org/) -->

<svg
   width="512"
   height="512"
   viewBox="0 0 135.46666 135.46666"
   version="1.1"
   id="svg1304"
   inkscape:version="1.1 (c68e22c387, 2021-05-23)"
   sodipodi:docname="minstrel.svg"
   xmlns:inkscape="http://www.inkscape.org/namespaces/inkscape"
   xmlns:sodipodi="http://sodipodi.sourceforge.net/DTD/sodipodi-0.dtd"
   xmlns="http://www.w3.org/2000/svg"
   xmlns:svg="http://www.w3.org/2000/svg">
  <sodipodi:namedview
     id="namedview1306"
     pagecolor="#505050"
     bordercolor="#eeeeee"
     borderopacity="1"
     inkscape:pageshadow="0"
     inkscape:pageopacity="0"
     inkscape:pagecheckerboard="0"
     inkscape:document-units="px"
     showgrid="false"
     width="512mm"
     units="px"
     inkscape:zoom="1"
     inkscape:cx="364.5"
     inkscape:cy="292.5"
     inkscape:window-width="1920"
     inkscape:window-height="1017"
     inkscape:window-x="1912"
     inkscape:window-y="-8"
     inkscape:window-maximized="1"
     inkscape:current-layer="layer1" />
  <defs
     id="defs1301">
    <filter
       style="color-interpolation-filters:sRGB;"
       inkscape:label="Colorize"
       id="filter139057"
       x="0"
       y="0"
       width="1"
       height="1">
      <feColorMatrix
         values="0.21 0.72 0.072 0 0 0.21 0.72 0.072 0 0 0.21 0.72 0.072 0 0 0 0 0 1 0 "
         id="feColorMatrix139055"
         result="fbSourceGraphic" />
      <feColorMatrix
         result="fbSourceGraphicAlpha"
         in="fbSourceGraphic"
         values="0 0 0 -1 0 0 0 0 -1 0 0 0 0 -1 0 0 0 0 1 0"
         id="feColorMatrix139265" />
      <feComposite
         in2="fbSourceGraphic"
         id="feComposite139267"
         operator="arithmetic"
         k1="0"
         k2="1"
         result="composite1"
         in="fbSourceGraphic" />
      <feColorMatrix
         id="feColorMatrix139269"
         in="composite1"
         values="1"
         type="saturate"
         result="colormatrix1" />
      <feFlood
         id="feFlood139271"
         flood-opacity="1"
         flood-color="rgb(0,0,0)"
         result="flood1" />
      <feBlend
         in2="colormatrix1"
         id="feBlend139273"
         in="flood1"
         mode="multiply"
         result="blend1" />
      <feBlend
         in2="blend1"
         id="feBlend139275"
         mode="screen"
         result="blend2" />
      <feColorMatrix
         id="feColorMatrix139277"
         in="blend2"
         values="1"
         type="saturate"
         result="colormatrix2" />
      <feComposite
         in2="fbSourceGraphic"
         id="feComposite139279"
         in="colormatrix2"
         operator="in"
         k2="1"
         result="composite2" />
    </filter>
  </defs>
  <g
     inkscape:label="Layer 1"
     inkscape:groupmode="layer"
     id="layer1">
    <path
       id="path174441"
       style="fill:#000000;stroke-width:0.729875"
       d="m 125.06908,2.635779 -6.83839,3.3077163 C 108.83878,10.487017 93.504319,23.851617 92.492447,28.375107 91.917495,30.945291 89.124525,33.927172 69.135841,53.318063 56.649185,65.431276 42.455661,79.252983 37.594618,84.032907 27.892226,93.573418 24.239273,95.332984 16.345266,94.267972 0.8493889,92.177364 14.953393,119.48384 32.509782,125.56376 c 2.037997,0.70577 4.142906,1.12886 4.677539,0.94001 0.53461,-0.18886 1.425586,-0.34406 1.980769,-0.34406 1.474098,0 2.762848,-2.85772 2.62388,-5.81799 -0.06654,-1.41647 0.268016,-4.81143 0.742792,-7.54473 l 0.862832,-4.97015 30.17998,-31.524095 C 90.176245,58.964473 104.32547,44.555899 105.02019,44.283464 c 0.69469,-0.272438 2.14901,-0.684785 3.23162,-0.916432 3.51943,-0.753056 18.59409,-18.857471 21.99964,-26.421027 l 2.83396,-6.293885 -4.0087,-4.0076324 z M 49.679689,5.1138911 65.047819,20.178699 80.400951,35.979866 87.21146,28.945335 83.402121,26.363254 71.603234,18.254734 59.004753,8.9564602 54.670206,6.7323756 Z M 29.287813,5.9863721 48.911175,27.323629 68.042563,48.327543 74.660141,41.374468 55.320819,24.493953 37.902239,9.2597902 34.334065,7.4065699 Z m 89.402707,5.7397389 2.37199,2.254097 c 3.00804,2.859047 3.21988,2.00343 -2.72463,11.02287 -5.40451,8.20012 -5.85121,8.666659 -5.85121,6.118105 0,-1.885919 -5.57276,-7.873785 -7.32821,-7.873785 -2.85202,0 -1.67603,-1.292056 5.68828,-6.245652 z M 14.399865,14.011291 35.419843,37.528682 55.574847,60.653777 62.0295,53.782171 42.088874,35.20706 21.942447,15.878448 C 19.993421,15.07531 16.442724,14.493241 14.399865,14.011291 Z m -3.745032,12.857873 c 0.928468,2.83057 1.337194,6.797669 2.507049,9.533009 l 14.919031,18.034896 15.44209,18.534379 6.182405,-6.813734 -19.330747,-19.321112 z m 85.576215,9.10534 c 2.680301,0.09773 4.757452,3.186069 3.154445,6.18134 -1.103597,2.062079 -5.496019,2.140374 -6.578992,0.116837 -1.250611,-2.33679 -0.861517,-4.324619 1.098641,-5.608974 0.777414,-0.509378 1.575421,-0.716561 2.325906,-0.689199 z M 2.3812499,46.181703 c 0,0 0.6187167,5.651328 1.8810897,8.129957 C 12.047155,65.599786 21.923689,75.454774 31.049923,85.703915 L 37.317014,78.545051 20.774131,63.244437 Z m 82.5000171,0.691344 c 0.750782,-0.02539 1.552744,0.186694 2.340914,0.703131 2.009784,1.316865 2.413082,3.29042 1.153306,5.644342 -1.073144,2.00516 -5.474715,1.947602 -6.562918,-0.08575 -1.635562,-3.056082 0.387323,-6.171049 3.068698,-6.261725 z m 21.204333,0.84783 -6.917698,6.928417 16.059478,15.083028 15.32418,15.108755 -1.70315,-4.961578 -2.29697,-4.295964 -9.51157,-12.43878 L 108.73199,51.4852 Z M 74.003096,57.870195 c 0.750485,-0.02738 1.547425,0.179829 2.324835,0.689199 1.960179,1.284355 2.350343,3.272181 1.099716,5.608971 -1.082955,2.023533 -5.47647,1.946312 -6.580067,-0.115758 -1.603008,-2.995273 0.475225,-6.084676 3.155516,-6.182412 z m 19.868816,2.611017 -6.839451,6.735489 21.325459,18.771254 21.66844,19.256805 -1.50594,-5.02054 -1.91432,-3.536021 -15.52783,-17.157051 z M 63.058473,68.4997 c 3.230156,0 5.510331,4.942308 3.300219,7.152434 -2.196421,2.196415 -7.152435,0.238699 -7.152435,-2.825391 0,-1.5896 2.437194,-4.327043 3.852216,-4.327043 z m 18.622261,4.821169 -6.761204,6.57042 23.463788,19.759498 23.871092,20.616973 c -0.51659,-2.03437 -1.15857,-5.57425 -1.99471,-7.50936 L 100.59131,92.943171 Z m -29.571173,6.126676 c 3.230141,0 5.511417,4.943379 3.301289,7.153502 -2.196398,2.196418 -7.152429,0.237636 -7.152429,-2.826459 0,-1.589602 2.436114,-4.327043 3.85114,-4.327043 z m 17.406787,6.405354 -6.707611,6.298177 18.793752,15.124834 18.285697,14.61034 c 2.754824,1.12321 6.727804,1.46389 9.573734,2.34413 L 89.16329,104.85353 Z m -28.148832,4.870473 c 0.690032,0.01162 1.411876,0.219376 2.115828,0.680626 2.01707,1.321646 2.538016,4.586548 0.979668,6.144895 -1.340852,1.340865 -4.586013,1.042868 -6.031282,-0.554141 -2.430022,-2.685153 -0.05434,-6.321697 2.935786,-6.27138 z M 13.9036,97.402055 c 0.871207,0.03816 2.244342,0.647204 4.376347,1.783554 10.349116,5.516031 22.573045,19.627441 20.386521,23.534541 -3.304436,5.90472 -26.172348,-13.79034 -26.172348,-22.54094 0,-1.931876 0.289354,-2.826233 1.40948,-2.777155 z m 43.437648,1.048263 -7.050606,6.388212 c 10.402718,8.95077 20.423649,18.65869 31.842412,26.2506 2.499717,1.22007 8.159965,1.74175 8.159965,1.74175 L 72.920535,114.7306 Z" />
  </g>
</svg>

<svg width="512" height="512" viewBox="0 0 135.467 135.467" xmlns="http://www.w3.org/2000/svg"><path style="fill:#000;stroke-width:.729875" d="m125.07 2.636-6.84 3.307c-9.391 4.544-24.726 17.909-25.738 22.432-.575 2.57-3.367 5.552-23.356 24.943-12.487 12.113-26.68 25.935-31.541 30.715-9.703 9.54-13.356 11.3-21.25 10.235-15.496-2.09-1.392 25.216 16.165 31.296 2.038.706 4.143 1.129 4.677.94.535-.19 1.426-.344 1.981-.344 1.474 0 2.763-2.858 2.624-5.818-.067-1.417.268-4.812.743-7.545l.863-4.97 30.18-31.524c16.598-17.339 30.747-31.747 31.442-32.02.695-.272 2.15-.684 3.232-.916 3.52-.753 18.594-18.857 22-26.421l2.833-6.294-4.008-4.008zM49.68 5.114l15.368 15.065 15.353 15.8 6.81-7.034-3.809-2.582-11.799-8.108-12.598-9.299-4.335-2.224zm-20.392.872L48.91 27.324l19.132 21.004 6.617-6.954-19.34-16.88L37.903 9.26l-3.568-1.853zm89.403 5.74 2.372 2.254c3.008 2.86 3.22 2.004-2.725 11.023-5.405 8.2-5.851 8.667-5.851 6.118 0-1.886-5.573-7.874-7.329-7.874-2.852 0-1.676-1.292 5.689-6.245zM14.4 14.011 35.42 37.53l20.155 23.125 6.454-6.872-19.94-18.575-20.147-19.329c-1.949-.803-5.5-1.385-7.542-1.867zM10.655 26.87c.928 2.83 1.337 6.798 2.507 9.533L28.08 54.437l15.442 18.534 6.182-6.813-19.33-19.321zm85.576 9.106c2.68.097 4.758 3.186 3.154 6.18-1.103 2.063-5.496 2.141-6.578.118-1.251-2.337-.862-4.325 1.098-5.61.778-.509 1.576-.716 2.326-.688zM2.381 46.182s.619 5.651 1.881 8.13C12.047 65.6 21.924 75.455 31.05 85.704l6.267-7.159-16.543-15.3zm82.5.691c.751-.025 1.553.187 2.341.703 2.01 1.317 2.413 3.29 1.153 5.645-1.073 2.005-5.474 1.947-6.562-.086-1.636-3.056.387-6.171 3.068-6.262zm21.205.848-6.918 6.928 16.06 15.083 15.324 15.11-1.704-4.963-2.297-4.295-9.511-12.44-8.308-11.659zM74.003 57.87c.75-.028 1.548.179 2.325.688 1.96 1.285 2.35 3.273 1.1 5.61-1.083 2.023-5.477 1.946-6.58-.116-1.603-2.996.475-6.085 3.155-6.183zm19.869 2.61-6.84 6.736 21.326 18.771 21.668 19.257-1.506-5.02-1.914-3.537-15.528-17.157zM63.058 68.5c3.23 0 5.51 4.942 3.3 7.152-2.196 2.197-7.152.239-7.152-2.825 0-1.59 2.437-4.327 3.852-4.327zm18.623 4.82-6.761 6.571 23.463 19.76 23.871 20.617c-.516-2.035-1.158-5.574-1.994-7.51L100.59 92.943zM52.11 79.449c3.23 0 5.511 4.943 3.3 7.153-2.196 2.196-7.152.238-7.152-2.826 0-1.59 2.437-4.327 3.852-4.327zm17.406 6.405L62.81 92.15l18.793 15.125 18.286 14.61c2.755 1.123 6.728 1.464 9.574 2.344l-20.299-19.376zm-28.148 4.87c.69.012 1.411.22 2.115.681 2.017 1.322 2.538 4.587.98 6.145-1.34 1.34-4.586 1.043-6.031-.554-2.43-2.685-.055-6.322 2.936-6.272zm-27.464 6.68c.87.037 2.244.646 4.376 1.783 10.35 5.516 22.573 19.627 20.386 23.534-3.304 5.905-26.172-13.79-26.172-22.54 0-1.933.29-2.827 1.41-2.778zM57.34 98.45l-7.05 6.389c10.402 8.95 20.423 18.658 31.842 26.25 2.5 1.22 8.16 1.742 8.16 1.742l-17.372-18.1z"/></svg>
